X:1
T:McCollister
M:4/4
L:1/8
K:E
 B2| G2 E3/2 E/2 E3/2 E/2 E3/2 E/2| F3/2 F/2 D3/2 E/2 F2 A3/2 A/2|\

M:5/4
 F2 D3/2 E/2F-G AB cB| B2- cB-G E3 B
M:4/4
| cB cd e B2 B| cB cd e B2 B| B/2 e3/2 cB BB BB| FB Bc BA G3/2 F/2|\

M:6/8
 G2 E3/2 E/2 E3/2 E/2|
M:4/4
 F/2 F3/2 D/2 E3/2 F/2 G3/2 A2| F/2 F3/2 D/2 E3/2 F/2 G3/2 A2| B/2 B3/2 e/2 e3/2 B/2 B3/2 G3/2 F/2|\
 G2 E3/2 E/2 E2||

